icons/dark/rb.svg

<svg width="16" height="16" viewBox="0 0 16 16" fill="none" xmlns="http://www.w3.org/2000/svg">
<path d="M12.5333 1.38C14.2133 1.66667 14.6933 2.82 14.6667 4.02667V4L13.9067 13.9533L4.05333 14.6267H4.06C3.24 14.5933 1.42 14.5133 1.33333 11.9667L2.24667 10.3L4.09333 14.6067L5.66667 9.52667L5.63333 9.53334L5.64667 9.52L10.7867 11.16L9.46 5.97334L14.36 5.66667L10.5 2.50667L12.5333 1.37334V1.38ZM4.18667 4.15334C6.16 2.18667 8.71333 1.02667 9.69333 2.02C10.6667 3 9.64 5.41334 7.66667 7.37334C5.66667 9.33334 3.15333 10.56 2.17333 9.57334C1.19333 8.58 2.2 6.11334 4.18 4.15334H4.18667Z" fill="#C5C5C5"/>
</svg>

<svg xmlns="http://www.w3.org/2000/svg" width="16" height="16" fill="none" xmlns:v="https://vecta.io/nano"><path d="M12.533 1.38c1.68.287 2.16 1.44 2.133 2.647V4l-.76 9.953-9.853.673h.007c-.82-.033-2.64-.113-2.727-2.66l.913-1.667 1.847 4.307 1.573-5.08-.033.007.013-.013 5.14 1.64L9.46 5.973l4.9-.307-3.86-3.16 2.033-1.133v.007zM4.187 4.153C6.16 2.187 8.713 1.027 9.693 2.02c.973.98-.053 3.393-2.027 5.353-2 1.96-4.513 3.187-5.493 2.2-.98-.993.027-3.46 2.007-5.42h.007z" fill="#c5c5c5"/></svg>
